;FLAVOR:Marlin
;TIME:16616
;Filament used: 11.1784m
;Layer height: 0.2
;MINX:35.082
;MINY:76.066
;MINZ:0.2
;MAXX:200.5
;MAXY:157.845
;MAXZ:35
;Generated with Cura_SteamEngine 4.6.2
M140 S60
M105
M190 S60
M104 S200
M105
M109 S200
M82 ;absolute extrusion mode
; Ender 3 Custom Start G-code
G92 E0 ; Reset Extruder
G28 ; Home all axes
G1 Z2.0 F3000 ; Move Z Axis up little to prevent scratching of Heat Bed
G1 X0.1 Y20 Z0.3 F5000.0 ; Move to start position
G1 X0.1 Y200.0 Z0.3 F1500.0 E15 ; Draw the first line
G1 X0.4 Y200.0 Z0.3 F5000.0 ; Move to side a little
G1 X0.4 Y20 Z0.3 F1500.0 E30 ; Draw the second line
G92 E0 ; Reset Extruder
G1 Z2.0 F3000 ; Move Z Axis up little to prevent scratching of Heat Bed
G1 X5 Y20 Z0.3 F5000.0 ; Move over to prevent blob squish
G92 E0
G92 E0
G1 F1500 E-6.5
;LAYER_COUNT:175
;LAYER:0
M107
G0 F6000 X105.527 Y76.88 Z0.2
;TYPE:SKIRT
G1 F1500 E0
G1 F1200 X106.429 Y76.935 E0.03006
G1 X107.484 Y77.101 E0.06558
G1 X108.716 Y77.365 E0.10748
G1 X109.394 Y77.522 E0.13063
G1 X111.929 Y78.033 E0.21664
G1 X114.398 Y78.459 E0.29997
G1 X116.939 Y78.823 E0.38535
G1 X119.423 Y79.108 E0.46851
G1 X121.995 Y79.329 E0.55437
G1 X124.502 Y79.474 E0.63789
G1 X127.067 Y79.549 E0.72324
G1 X129.606 Y79.552 E0.80769
G1 X132.132 Y79.484 E0.89174
G1 X134.663 Y79.343 E0.97605
G1 X137.197 Y79.13 E1.06063
G1 X139.698 Y78.849 E1.14433
G1 X142.668 Y78.425 E1.24412
G1 X143.819 Y78.327 E1.28254
G1 X144.695 Y78.302 E1.31169
G1 X145.113 Y78.299 E1.32559
G1 X145.916 Y78.309 E1.3523
G1 X146.818 Y78.36 E1.38235
G1 X147.711 Y78.491 E1.41237
G1 X148.185 Y78.593 E1.42849
G1 X148.605 Y78.694 E1.44286
G1 X151.152 Y79.281 E1.52979
G1 X153.651 Y79.783 E1.61457
G1 X156.145 Y80.21 E1.69873
G1 X158.672 Y80.57 E1.78363
G1 X161.158 Y80.853 E1.86685
G1 X163.701 Y81.071 E1.95174
G1 X166.249 Y81.215 E2.03662
G1 X168.816 Y81.289 E2.12203
G1 X170.142 Y81.298 E2.16614
G1 X188.939 Y81.299 E2.79133
G1 X189.637 Y81.309 E2.81455
G1 X190.539 Y81.362 E2.8446
G1 X191.432 Y81.494 E2.87462
G1 X192.31 Y81.705 E2.90466
G1 X193.166 Y81.993 E2.93469
G1 X193.993 Y82.355 E2.96472
G1 X194.785 Y82.79 E2.99477
G1 X195.536 Y83.292 E3.02482
G1 X196.239 Y83.859 E3.05486
G1 X196.889 Y84.486 E3.0849
G1 X197.481 Y85.168 E3.11493
G1 X198.011 Y85.899 E3.14496
G1 X198.473 Y86.675 E3.175
G1 X198.866 Y87.488 E3.20504
G1 X199.184 Y88.333 E3.23507
G1 X199.427 Y89.203 E3.26511
G1 X199.592 Y90.091 E3.29515
G1 X199.687 Y91.221 E3.33287
G1 X199.7 Y91.828 E3.35306
G1 X199.699 Y130.937 E4.65383
G1 X199.689 Y131.635 E4.67705
G1 X199.636 Y132.537 E4.7071
G1 X199.504 Y133.43 E4.73713
G1 X199.293 Y134.308 E4.76716
G1 X199.005 Y135.164 E4.7972
G1 X198.643 Y135.991 E4.82722
G1 X198.208 Y136.783 E4.85728
G1 X197.743 Y137.483 E4.88523
G1 X197.346 Y138.025 E4.90757
G1 X196.294 Y139.408 E4.96537
G1 X194.807 Y141.479 E5.05017
G1 X193.394 Y143.569 E5.13408
G1 X192.028 Y145.723 E5.21891
G1 X190.725 Y147.907 E5.3035
G1 X189.482 Y150.134 E5.38832
G1 X189.115 Y150.829 E5.41446
G1 X188.701 Y151.587 E5.44319
G1 X188.233 Y152.36 E5.47324
G1 X187.699 Y153.088 E5.50327
G1 X187.103 Y153.766 E5.5333
G1 X186.449 Y154.389 E5.56334
G1 X185.429 Y155.17 E5.60607
G1 X185.253 Y155.288 E5.61312
G1 X184.481 Y155.757 E5.64316
G1 X183.671 Y156.156 E5.67319
G1 X182.829 Y156.482 E5.70322
G1 X181.961 Y156.732 E5.73327
G1 X181.075 Y156.905 E5.76329
G1 X179.893 Y157.011 E5.80276
G1 X178.681 Y157.044 E5.84309
G1 X142.048 Y157.045 E7.06151
G1 X141.37 Y157.035 E7.08406
G1 X140.468 Y156.982 E7.11411
G1 X139.575 Y156.849 E7.14414
G1 X138.697 Y156.637 E7.17418
G1 X137.449 Y156.188 E7.2183
G1 X136.9 Y155.949 E7.23821
G1 X136.425 Y155.728 E7.25564
G1 X134.924 Y154.981 E7.3114
G1 X132.647 Y153.925 E7.39488
G1 X130.291 Y152.913 E7.48017
G1 X127.941 Y151.981 E7.56425
G1 X125.555 Y151.113 E7.6487
G1 X123.148 Y150.312 E7.73307
G1 X120.728 Y149.583 E7.81713
G1 X118.265 Y148.916 E7.902
G1 X115.769 Y148.315 E7.98739
G1 X113.286 Y147.793 E8.07178
G1 X110.822 Y147.346 E8.15507
G1 X108.285 Y146.959 E8.24043
G1 X105.759 Y146.647 E8.32508
G1 X103.246 Y146.408 E8.40904
G1 X100.738 Y146.241 E8.49264
G1 X98.143 Y146.143 E8.57902
G1 X95.984 Y146.117 E8.65083
G1 X47.067 Y146.115 E10.27782
G1 X46.331 Y146.105 E10.3023
G1 X45.726 Y146.079 E10.32244
G1 X44.828 Y145.982 E10.35248
G1 X43.943 Y145.806 E10.38249
G1 X43.076 Y145.551 E10.41255
G1 X42.235 Y145.222 E10.44259
G1 X41.427 Y144.819 E10.47262
G1 X40.657 Y144.346 E10.50267
G1 X40.155 Y143.983 E10.52328
G1 X39.964 Y143.836 E10.53129
G1 X39.273 Y143.254 E10.56134
G1 X38.637 Y142.613 E10.59138
G1 X38.06 Y141.919 E10.62139
G1 X37.546 Y141.176 E10.65144
G1 X37.003 Y140.194 E10.68877
G1 X36.914 Y140.01 E10.69556
G1 X36.557 Y139.181 E10.72559
G1 X36.275 Y138.323 E10.75562
G1 X36.07 Y137.443 E10.78568
G1 X35.943 Y136.549 E10.81571
G1 X35.901 Y135.899 E10.83737
G1 X35.887 Y135.466 E10.85178
G1 X35.882 Y135.136 E10.86276
G1 X35.885 Y87.987 E12.43094
G1 X35.895 Y87.297 E12.45389
G1 X35.948 Y86.396 E12.48391
G1 X36.081 Y85.502 E12.51398
G1 X36.292 Y84.624 E12.54401
G1 X36.75 Y83.354 E12.58891
G1 X36.831 Y83.169 E12.59563
G1 X37.23 Y82.359 E12.62566
G1 X37.698 Y81.587 E12.65569
G1 X38.234 Y80.859 E12.68576
G1 X38.831 Y80.182 E12.71578
G1 X39.613 Y79.451 E12.75138
G1 X39.807 Y79.288 E12.75981
G1 X40.524 Y78.738 E12.78986
G1 X41.286 Y78.254 E12.81989
G1 X42.088 Y77.839 E12.84992
G1 X42.924 Y77.496 E12.87998
G1 X43.787 Y77.229 E12.91002
G1 X44.67 Y77.04 E12.94006
G1 X45.566 Y76.929 E12.97009
G1 X46.166 Y76.899 E12.99007
G1 X47.225 Y76.88 E13.0253
G1 X100.313 Y76.879 E14.79101
G1 X103.415 Y76.866 E14.89418
G1 X104.757 Y76.869 E14.93882
G1 X105.527 Y76.88 E14.96443
G0 F6000 X105.534 Y76.48
G1 F1200 X106.453 Y76.535 E14.99505
G1 X107.568 Y76.71 E15.03259
G1 X108.806 Y76.975 E15.0747
G1 X109.492 Y77.133 E15.09811
G1 X111.97 Y77.633 E15.18219
G1 X114.486 Y78.067 E15.26711
G1 X116.97 Y78.423 E15.35057
G1 X119.504 Y78.714 E15.43541
G1 X122.016 Y78.93 E15.51927
G1 X124.536 Y79.075 E15.60322
G1 X127.045 Y79.149 E15.68671
G1 X129.595 Y79.152 E15.77152
G1 X132.098 Y79.085 E15.8548
G1 X134.643 Y78.943 E15.93958
G1 X137.154 Y78.732 E16.02339
G1 X139.667 Y78.449 E16.1075
G1 X142.612 Y78.029 E16.20644
G1 X143.808 Y77.927 E16.24637
G1 X144.684 Y77.902 E16.27551
G1 X145.118 Y77.899 E16.28995
G1 X145.921 Y77.909 E16.31666
G1 X146.84 Y77.96 E16.34727
G1 X147.751 Y78.091 E16.37788
G1 X148.279 Y78.205 E16.39585
G1 X148.619 Y78.287 E16.40748
G1 X151.249 Y78.893 E16.49725
G1 X153.732 Y79.392 E16.58149
G1 X156.197 Y79.814 E16.66466
G1 X158.702 Y80.171 E16.74882
G1 X161.236 Y80.459 E16.83365
G1 X163.721 Y80.672 E16.9166
G1 X166.249 Y80.815 E17.00082
G1 X168.829 Y80.889 E17.08666
G1 X170.145 Y80.898 E17.13044
G1 X188.945 Y80.899 E17.75573
G1 X189.643 Y80.909 E17.77894
G1 X190.562 Y80.962 E17.80956
G1 X191.473 Y81.095 E17.84018
G1 X192.369 Y81.306 E17.8708
G1 X193.243 Y81.594 E17.90141
G1 X194.09 Y81.957 E17.93205
G1 X194.901 Y82.392 E17.96266
G1 X195.671 Y82.896 E17.99327
G1 X196.395 Y83.465 E18.0239
G1 X197.067 Y84.095 E18.05454
G1 X197.682 Y84.78 E18.08515
G1 X198.235 Y85.516 E18.11577
G1 X198.722 Y86.297 E18.14639
G1 X199.139 Y87.118 E18.17701
G1 X199.484 Y87.972 E18.20765
G1 X199.753 Y88.852 E18.23825
G1 X199.945 Y89.753 E18.26889
G1 X200.058 Y90.666 E18.29949
G1 X200.087 Y91.21 E18.31761
G1 X200.1 Y91.828 E18.33817
G1 X200.099 Y130.943 E19.63914
G1 X200.089 Y131.641 E19.66236
G1 X200.036 Y132.56 E19.69298
G1 X199.903 Y133.471 E19.7236
G1 X199.692 Y134.367 E19.75421
G1 X199.404 Y135.241 E19.78482
G1 X199.041 Y136.088 E19.81547
G1 X198.606 Y136.899 E19.84608
G1 X198.067 Y137.718 E19.87869
G1 X197.665 Y138.267 E19.90132
G1 X196.605 Y139.66 E19.95954
G1 X195.142 Y141.698 E20.04298
G1 X193.721 Y143.802 E20.12743
G1 X192.36 Y145.946 E20.21189
G1 X191.074 Y148.101 E20.29536
G1 X189.836 Y150.321 E20.3799
G1 X189.466 Y151.021 E20.40624
G1 X189.052 Y151.779 E20.43496
G1 X188.576 Y152.567 E20.46558
G1 X188.033 Y153.311 E20.49622
G1 X187.428 Y154.005 E20.52684
G1 X186.765 Y154.644 E20.55746
G1 X186.049 Y155.222 E20.58807
G1 X185.652 Y155.502 E20.60423
G1 X185.476 Y155.62 E20.61128
G1 X184.69 Y156.099 E20.64189
G1 X183.865 Y156.508 E20.67252
G1 X183.008 Y156.844 E20.70313
G1 X182.125 Y157.104 E20.73375
G1 X181.222 Y157.287 E20.76439
G1 X179.905 Y157.411 E20.80839
G1 X179.012 Y157.439 E20.83811
G1 X178.681 Y157.444 E20.84912
G1 X142.042 Y157.445 E22.06773
G1 X141.364 Y157.435 E22.09029
G1 X140.445 Y157.381 E22.12091
G1 X139.534 Y157.248 E22.15153
G1 X138.638 Y157.037 E22.18214
G1 X137.763 Y156.748 E22.21279
G1 X137.289 Y156.555 E22.22981
G1 X136.74 Y156.316 E22.24973
G1 X136.247 Y156.086 E22.26782
G1 X134.77 Y155.351 E22.3227
G1 X132.486 Y154.292 E22.40643
G1 X130.134 Y153.282 E22.49157
G1 X127.793 Y152.353 E22.57533
G1 X125.429 Y151.493 E22.659
G1 X123.012 Y150.689 E22.74372
G1 X120.623 Y149.969 E22.82671
G1 X118.138 Y149.296 E22.91234
G1 X115.691 Y148.707 E22.99605
G1 X113.245 Y148.192 E23.07919
G1 X110.727 Y147.735 E23.16431
G1 X108.242 Y147.357 E23.24791
G1 X105.744 Y147.048 E23.33163
G1 X103.215 Y146.808 E23.41612
G1 X100.663 Y146.638 E23.50119
G1 X98.161 Y146.543 E23.58446
G1 X95.98 Y146.517 E23.65701
G1 X47.062 Y146.515 E25.28403
G1 X46.326 Y146.505 E25.30851
G1 X45.701 Y146.478 E25.32932
G1 X44.785 Y146.38 E25.35996
G1 X43.882 Y146.202 E25.39057
G1 X42.997 Y145.947 E25.4212
G1 X42.138 Y145.616 E25.45182
G1 X41.311 Y145.212 E25.48243
G1 X40.522 Y144.737 E25.51306
G1 X39.911 Y144.3 E25.53805
G1 X39.72 Y144.153 E25.54607
G1 X39.015 Y143.561 E25.57669
G1 X38.365 Y142.909 E25.60731
G1 X37.774 Y142.203 E25.63793
G1 X37.246 Y141.449 E25.66854
G1 X36.643 Y140.369 E25.70969
G1 X36.554 Y140.185 E25.71648
G1 X36.189 Y139.339 E25.74713
G1 X35.899 Y138.465 E25.77776
G1 X35.687 Y137.57 E25.80835
G1 X35.552 Y136.659 E25.83898
G1 X35.502 Y135.912 E25.86388
G1 X35.488 Y135.479 E25.87829
G1 X35.482 Y135.136 E25.8897
G1 X35.485 Y87.981 E27.45808
G1 X35.495 Y87.291 E27.48103
G1 X35.548 Y86.372 E27.51165
G1 X35.681 Y85.461 E27.54227
G1 X35.893 Y84.565 E27.57289
G1 X36.181 Y83.691 E27.6035
G1 X36.384 Y83.194 E27.62136
G1 X36.465 Y83.009 E27.62807
G1 X36.87 Y82.182 E27.6587
G1 X37.346 Y81.394 E27.68932
G1 X37.889 Y80.65 E27.71996
G1 X38.493 Y79.956 E27.75056
G1 X39.356 Y79.144 E27.78997
G1 X39.55 Y78.981 E27.7984
G1 X40.28 Y78.42 E27.82902
G1 X41.056 Y77.925 E27.85963
G1 X41.872 Y77.498 E27.89026
G1 X42.722 Y77.144 E27.92089
G1 X43.599 Y76.865 E27.9515
G1 X44.497 Y76.664 E27.9821
G1 X45.41 Y76.54 E28.01275
G1 X46.159 Y76.499 E28.0377
G1 X47.225 Y76.48 E28.07316
G1 X100.312 Y76.479 E29.83884
G1 X103.416 Y76.466 E29.94208
G1 X104.758 Y76.469 E29.98672
G1 X105.534 Y76.48 E30.01253
G0 F6000 X105.54 Y76.08
G1 F1200 X106.476 Y76.135 E30.04371
G1 X107.651 Y76.319 E30.08327
G1 X108.896 Y76.585 E30.12561
G1 X109.589 Y76.745 E30.14927
G1 X112.045 Y77.24 E30.2326
G1 X114.544 Y77.672 E30.31695
G1 X117.031 Y78.028 E30.40051
G1 X119.514 Y78.313 E30.48364
G1 X122.04 Y78.53 E30.56796
G1 X124.571 Y78.676 E30.65228
G1 X127.057 Y78.749 E30.735
G1 X129.585 Y78.752 E30.81909
G1 X132.101 Y78.684 E30.9028
G1 X134.623 Y78.544 E30.98681
G1 X137.113 Y78.335 E31.06992
G1 X139.595 Y78.056 E31.15299
G1 X142.555 Y77.633 E31.25244
G1 X143.796 Y77.527 E31.29387
G1 X144.672 Y77.502 E31.32301
G1 X145.123 Y77.499 E31.33801
G1 X145.926 Y77.509 E31.36472
G1 X146.862 Y77.56 E31.3959
G1 X147.791 Y77.692 E31.42711
G1 X148.373 Y77.816 E31.4469
G1 X148.779 Y77.914 E31.46079
G1 X151.313 Y78.498 E31.54729
G1 X153.812 Y79 E31.63206
G1 X156.244 Y79.416 E31.71413
G1 X158.768 Y79.776 E31.79892
G1 X161.248 Y80.058 E31.88194
G1 X163.779 Y80.275 E31.96643
G1 X166.281 Y80.416 E32.04978
G1 X168.798 Y80.489 E32.13353
G1 X170.148 Y80.498 E32.17843
G1 X188.951 Y80.499 E32.80382
G1 X189.649 Y80.509 E32.82704
G1 X190.585 Y80.563 E32.85822
G1 X191.513 Y80.695 E32.8894
G1 X192.427 Y80.907 E32.92061
G1 X193.319 Y81.196 E32.95179
G1 X194.184 Y81.559 E32.98299
G1 X195.014 Y81.995 E33.01418
G1 X195.805 Y82.5 E33.04539
G1 X196.549 Y83.071 E33.07658
G1 X197.242 Y83.703 E33.10778
G1 X197.879 Y84.391 E33.13896
G1 X198.454 Y85.132 E33.17016
G1 X198.965 Y85.918 E33.20134
G1 X199.407 Y86.746 E33.23256
G1 X199.776 Y87.608 E33.26375
G1 X200.071 Y88.498 E33.29493
G1 X200.289 Y89.41 E33.32612
G1 X200.429 Y90.338 E33.35733
G1 X200.487 Y91.199 E33.38604
G1 X200.5 Y91.828 E33.40696
G1 X200.499 Y130.949 E34.70813
G1 X200.489 Y131.647 E34.73135
G1 X200.435 Y132.583 E34.76253
G1 X200.303 Y133.511 E34.79371
G1 X200.091 Y134.425 E34.82491
G1 X199.802 Y135.317 E34.8561
G1 X199.439 Y136.182 E34.8873
G1 X199.003 Y137.012 E34.91848
G1 X198.39 Y137.953 E34.95584
G1 X197.983 Y138.509 E34.97875
G1 X196.932 Y139.89 E35.03648
G1 X195.466 Y141.933 E35.12011
G1 X194.057 Y144.019 E35.20384
G1 X192.714 Y146.134 E35.28716
G1 X191.409 Y148.322 E35.3719
G1 X190.189 Y150.508 E35.45516
G1 X189.817 Y151.213 E35.48167
G1 X189.403 Y151.971 E35.5104
G1 X188.919 Y152.774 E35.54158
G1 X188.368 Y153.533 E35.57278
G1 X187.754 Y154.242 E35.60398
G1 X187.083 Y154.897 E35.63516
G1 X186.357 Y155.492 E35.66638
G1 X185.875 Y155.835 E35.68606
G1 X185.699 Y155.953 E35.69311
G1 X184.898 Y156.441 E35.7243
G1 X184.059 Y156.86 E35.75549
G1 X183.187 Y157.205 E35.78669
G1 X182.289 Y157.475 E35.81787
G1 X181.371 Y157.668 E35.84907
G1 X180.44 Y157.782 E35.88027
G1 X179.918 Y157.811 E35.89766
G1 X179.025 Y157.839 E35.92737
G1 X178.681 Y157.844 E35.93882
G1 X142.036 Y157.845 E37.15764
G1 X141.358 Y157.835 E37.18019
G1 X140.421 Y157.781 E37.2114
G1 X139.493 Y157.648 E37.24259
G1 X138.58 Y157.436 E37.27376
G1 X137.687 Y157.147 E37.30498
G1 X137.129 Y156.922 E37.32499
G1 X136.58 Y156.683 E37.3449
G1 X136.069 Y156.444 E37.36367
G1 X134.603 Y155.714 E37.41814
G1 X132.297 Y154.645 E37.50268
G1 X130.009 Y153.663 E37.58549
G1 X127.657 Y152.729 E37.66966
G1 X125.281 Y151.865 E37.75375
G1 X122.907 Y151.075 E37.83696
G1 X120.498 Y150.349 E37.92065
G1 X118.046 Y149.685 E38.00514
G1 X115.587 Y149.093 E38.08926
G1 X113.163 Y148.583 E38.17165
G1 X110.702 Y148.137 E38.25484
G1 X108.17 Y147.751 E38.34002
G1 X105.693 Y147.445 E38.42303
G1 X103.187 Y147.207 E38.50676
G1 X100.655 Y147.038 E38.59116
G1 X98.142 Y146.943 E38.6748
G1 X95.975 Y146.917 E38.74688
G1 X47.057 Y146.915 E40.3739
G1 X46.321 Y146.905 E40.39838
G1 X45.675 Y146.878 E40.41989
G1 X44.743 Y146.778 E40.45107
G1 X43.822 Y146.599 E40.48227
G1 X42.92 Y146.343 E40.51346
G1 X42.043 Y146.011 E40.54465
G1 X41.197 Y145.605 E40.57586
G1 X40.39 Y145.128 E40.60704
G1 X39.667 Y144.617 E40.63648
G1 X39.476 Y144.47 E40.6445
G1 X38.758 Y143.867 E40.67568
G1 X38.094 Y143.205 E40.70687
G1 X37.488 Y142.488 E40.73809
G1 X36.946 Y141.723 E40.76928
G1 X36.283 Y140.543 E40.8143
G1 X36.194 Y140.359 E40.82109
G1 X35.822 Y139.498 E40.85229
G1 X35.524 Y138.608 E40.88351
G1 X35.304 Y137.697 E40.91468
G1 X35.162 Y136.77 E40.94587
G1 X35.102 Y135.924 E40.97408
G1 X35.088 Y135.491 E40.98849
G1 X35.082 Y135.136 E41.0003
G1 X35.085 Y87.976 E42.56884
G1 X35.095 Y87.286 E42.5918
G1 X35.149 Y86.349 E42.62301
G1 X35.282 Y85.421 E42.65419
G1 X35.494 Y84.507 E42.6854
G1 X35.782 Y83.615 E42.71658
G1 X36.018 Y83.033 E42.73746
G1 X36.099 Y82.848 E42.74418
G1 X36.511 Y82.006 E42.77536
G1 X36.994 Y81.202 E42.80655
G1 X37.543 Y80.442 E42.83774
G1 X38.155 Y79.731 E42.86894
G1 X39.099 Y78.838 E42.91216
G1 X39.293 Y78.675 E42.92059
G1 X40.036 Y78.103 E42.95177
G1 X40.825 Y77.596 E42.98297
G1 X41.655 Y77.158 E43.01418
G1 X42.518 Y76.793 E43.04535
G1 X43.41 Y76.502 E43.07655
G1 X44.323 Y76.289 E43.10774
G1 X45.251 Y76.154 E43.13893
G1 X46.151 Y76.099 E43.16892
G1 X47.225 Y76.08 E43.20464
G1 X100.31 Y76.079 E44.97026
G1 X103.417 Y76.066 E45.0736
G1 X104.759 Y76.069 E45.11823
G1 X105.54 Y76.08 E45.14421
G1 F1500 E38.64421
;MESH:9e8c8e8f-e12b-425e-8ea7-a3fbbf2f8f7e.stl
G0 F6000 X141.225 Y144.854
G0 X141.563 Y145.889
G0 X141.678 Y146.243
;TYPE:WALL-INNER
G1 F1500 E45.14421
G1 F1200 X141.671 Y146.229 E45.14473
G1 X141.669 Y146.09 E45.14936
G1 X141.678 Y146.073 E45.14999
G1 X150.994 Y146.065 E45.45985
G1 X179.319 Y146.066 E46.40194
G1 X179.331 Y146.089 E46.4028
G1 X179.329 Y146.23 E46.40749
G1 X179.322 Y146.243 E46.40798
G1 X150.994 Y146.243 E46.82716
