;FLAVOR:Marlin
;TIME:2268
;Filament used: 1.56085m
;Layer height: 0.2
;MINX:80.007
;MINY:80.013
;MINZ:0.2
;MAXX:154.982
;MAXY:154.984
;MAXZ:7
;Generated with Cura_SteamEngine 4.6.2
M140 S60
M105
M190 S60
M104 S200
M105
M109 S200
M82 ;absolute extrusion mode
; Ender 3 Custom Start G-code
G92 E0 ; Reset Extruder
G28 ; Home all axes
G1 Z2.0 F3000 ; Move Z Axis up little to prevent scratching of Heat Bed
G1 X0.1 Y20 Z0.3 F5000.0 ; Move to start position
G1 X0.1 Y200.0 Z0.3 F1500.0 E15 ; Draw the first line
G1 X0.4 Y200.0 Z0.3 F5000.0 ; Move to side a little
G1 X0.4 Y20 Z0.3 F1500.0 E30 ; Draw the second line
G92 E0 ; Reset Extruder
G1 Z2.0 F3000 ; Move Z Axis up little to prevent scratching of Heat Bed
G1 X5 Y20 Z0.3 F5000.0 ; Move over to prevent blob squish
G92 E0
G92 E0
G1 F1500 E-6.5
;LAYER_COUNT:35
;LAYER:0
M107
G0 F6000 X119.268 Y80.855 Z0.2
;TYPE:SKIRT
G1 F1500 E0
G1 F1200 X119.941 Y80.893 E0.02242
G1 X120.272 Y80.917 E0.03346
G1 X121.435 Y81.025 E0.07231
G1 X122.146 Y81.108 E0.09611
G1 X122.482 Y81.153 E0.10739
G1 X123.609 Y81.326 E0.14531
G1 X124.671 Y81.521 E0.18123
G1 X125.76 Y81.756 E0.21828
G1 X126.748 Y81.999 E0.25212
G1 X127.881 Y82.313 E0.29122
G1 X128.579 Y82.526 E0.3155
G1 X128.903 Y82.631 E0.32682
G1 X129.985 Y83.004 E0.36489
G1 X130.649 Y83.25 E0.38844
G1 X130.977 Y83.378 E0.40015
G1 X132.011 Y83.807 E0.43739
G1 X132.978 Y84.24 E0.47263
G1 X133.968 Y84.719 E0.5092
G1 X134.606 Y85.047 E0.53306
G1 X134.901 Y85.205 E0.5442
G1 X136.002 Y85.823 E0.58619
G1 X136.829 Y86.322 E0.61831
G1 X137.796 Y86.942 E0.65652
G1 X138.673 Y87.542 E0.69186
G1 X139.57 Y88.196 E0.72878
G1 X140.12 Y88.617 E0.75182
G1 X140.402 Y88.841 E0.7638
G1 X141.34 Y89.619 E0.80433
G1 X142.115 Y90.301 E0.83867
G1 X142.915 Y91.047 E0.87505
G1 X143.647 Y91.771 E0.90929
G1 X144.465 Y92.63 E0.94875
G1 X145.179 Y93.426 E0.98431
G1 X145.888 Y94.268 E1.02092
G1 X146.358 Y94.854 E1.04591
G1 X146.555 Y95.108 E1.0566
G1 X147.244 Y96.032 E1.09493
G1 X147.841 Y96.884 E1.12954
G1 X148.456 Y97.82 E1.16679
G1 X149.026 Y98.745 E1.20292
G1 X149.575 Y99.702 E1.23962
G1 X149.938 Y100.371 E1.26494
G1 X150.091 Y100.664 E1.27593
G1 X150.567 Y101.621 E1.31148
G1 X150.887 Y102.303 E1.33654
G1 X151.03 Y102.621 E1.34813
G1 X151.469 Y103.656 E1.38553
G1 X151.74 Y104.338 E1.40993
G1 X151.862 Y104.662 E1.42145
G1 X152.261 Y105.784 E1.46106
G1 X152.469 Y106.418 E1.48325
G1 X152.567 Y106.736 E1.49432
G1 X152.911 Y107.928 E1.53558
G1 X153.147 Y108.85 E1.56723
G1 X153.411 Y110.019 E1.6071
G1 X153.55 Y110.713 E1.63064
G1 X153.613 Y111.057 E1.64227
G1 X153.785 Y112.118 E1.67802
G1 X153.886 Y112.844 E1.7024
G1 X153.926 Y113.176 E1.71352
G1 X154.043 Y114.311 E1.75147
G1 X154.099 Y115.016 E1.77499
G1 X154.121 Y115.368 E1.78672
G1 X154.167 Y116.485 E1.82391
G1 X154.181 Y117.246 E1.84922
G1 X154.182 Y117.578 E1.86026
G1 X154.162 Y118.717 E1.89815
G1 X154.113 Y119.754 E1.93268
G1 X154.025 Y120.886 E1.97045
G1 X153.915 Y121.916 E2.0049
G1 X153.754 Y123.086 E2.04418
G1 X153.631 Y123.837 E2.06949
G1 X153.573 Y124.157 E2.08031
G1 X153.36 Y125.222 E2.11643
G1 X153.203 Y125.919 E2.14019
G1 X153.127 Y126.231 E2.15087
G1 X152.81 Y127.44 E2.19244
G1 X152.536 Y128.365 E2.22453
G1 X152.263 Y129.208 E2.254
G1 X152.165 Y129.494 E2.26406
G1 X151.799 Y130.505 E2.29982
G1 X151.42 Y131.463 E2.33409
G1 X150.996 Y132.452 E2.36988
G1 X150.486 Y133.548 E2.41008
G1 X150.018 Y134.476 E2.44465
G1 X149.484 Y135.462 E2.48195
G1 X149.115 Y136.105 E2.5066
G1 X148.95 Y136.382 E2.51733
G1 X148.356 Y137.338 E2.55476
G1 X147.978 Y137.915 E2.57771
G1 X147.789 Y138.194 E2.58891
G1 X147.067 Y139.212 E2.63042
G1 X146.47 Y140.003 E2.66338
G1 X145.763 Y140.884 E2.70096
G1 X145.27 Y141.469 E2.7264
G1 X145.05 Y141.722 E2.73755
G1 X144.342 Y142.502 E2.77259
G1 X143.86 Y143.011 E2.7959
G1 X143.623 Y143.254 E2.80719
G1 X142.756 Y144.104 E2.84758
G1 X142.248 Y144.579 E2.87071
G1 X141.991 Y144.812 E2.88225
G1 X141.125 Y145.564 E2.92039
G1 X140.602 Y145.997 E2.94298
G1 X140.344 Y146.203 E2.95396
G1 X139.398 Y146.932 E2.99368
G1 X138.863 Y147.324 E3.01574
G1 X138.583 Y147.521 E3.02713
G1 X137.574 Y148.205 E3.06767
G1 X136.987 Y148.581 E3.09086
G1 X136.731 Y148.739 E3.10086
G1 X135.713 Y149.345 E3.14027
G1 X134.834 Y149.832 E3.17369
G1 X133.803 Y150.363 E3.21226
G1 X133.153 Y150.679 E3.2363
G1 X132.846 Y150.822 E3.24756
G1 X131.88 Y151.25 E3.2827
G1 X131.206 Y151.531 E3.30699
G1 X130.857 Y151.669 E3.31947
G1 X129.681 Y152.104 E3.36118
G1 X128.77 Y152.412 E3.39316
G1 X127.677 Y152.747 E3.43119
G1 X126.989 Y152.939 E3.45494
G1 X126.671 Y153.022 E3.46587
G1 X125.583 Y153.284 E3.5031
G1 X124.862 Y153.441 E3.52764
G1 X124.502 Y153.513 E3.53985
G1 X123.407 Y153.707 E3.57684
G1 X122.346 Y153.866 E3.61252
G1 X121.285 Y153.991 E3.64805
G1 X120.55 Y154.061 E3.67261
G1 X120.201 Y154.088 E3.68425
G1 X118.992 Y154.157 E3.72453
G1 X117.978 Y154.184 E3.75827
G1 X116.841 Y154.181 E3.79608
G1 X116.088 Y154.161 E3.82114
G1 X115.757 Y154.147 E3.83216
G1 X114.715 Y154.082 E3.86688
G1 X113.976 Y154.019 E3.89155
G1 X113.633 Y153.984 E3.90302
G1 X112.41 Y153.834 E3.944
G1 X111.725 Y153.732 E3.96703
G1 X111.424 Y153.682 E3.97718
G1 X110.334 Y153.483 E4.01403
G1 X109.614 Y153.333 E4.03849
G1 X109.278 Y153.257 E4.04995
G1 X108.17 Y152.983 E4.08791
G1 X107.472 Y152.793 E4.11198
G1 X107.147 Y152.699 E4.12323
G1 X106.004 Y152.342 E4.16306
G1 X105.067 Y152.018 E4.19603
G1 X103.942 Y151.593 E4.23603
G1 X102.982 Y151.196 E4.27058
G1 X102.016 Y150.763 E4.30579
G1 X101.334 Y150.437 E4.33093
G1 X101.043 Y150.292 E4.34175
G1 X99.926 Y149.708 E4.38367
G1 X99.094 Y149.24 E4.41542
G1 X98.332 Y148.786 E4.44492
G1 X98.08 Y148.63 E4.45478
G1 X97.506 Y148.265 E4.4774
G1 X97.237 Y148.088 E4.48811
G1 X96.272 Y147.426 E4.52703
G1 X95.704 Y147.016 E4.55033
G1 X95.439 Y146.818 E4.56134
G1 X94.532 Y146.113 E4.59954
G1 X93.992 Y145.672 E4.62273
G1 X93.736 Y145.456 E4.63387
G1 X92.809 Y144.641 E4.67493
G1 X92.081 Y143.961 E4.70806
G1 X91.258 Y143.145 E4.74661
G1 X90.792 Y142.661 E4.76895
G1 X90.565 Y142.416 E4.78006
G1 X89.772 Y141.532 E4.81956
G1 X89.31 Y140.99 E4.84325
G1 X89.097 Y140.731 E4.8544
G1 X88.426 Y139.883 E4.89037
G1 X87.776 Y139.014 E4.92646
G1 X87.113 Y138.067 E4.96491
G1 X86.713 Y137.465 E4.98895
G1 X86.533 Y137.183 E5.00008
G1 X85.929 Y136.197 E5.03854
G1 X85.412 Y135.295 E5.07312
G1 X84.878 Y134.296 E5.11079
G1 X84.422 Y133.381 E5.1448
G1 X84.03 Y132.537 E5.17575
G1 X83.901 Y132.246 E5.18633
G1 X83.495 Y131.284 E5.22106
G1 X83.055 Y130.147 E5.26161
G1 X82.866 Y129.623 E5.28014
G1 X82.762 Y129.319 E5.29083
G1 X82.406 Y128.213 E5.32947
G1 X82.211 Y127.556 E5.35227
G1 X82.117 Y127.219 E5.3639
G1 X81.804 Y125.997 E5.40586
G1 X81.595 Y125.069 E5.4375
G1 X81.367 Y123.89 E5.47744
G1 X81.207 Y122.911 E5.51043
G1 X81.057 Y121.784 E5.54824
G1 X80.977 Y121.039 E5.57317
G1 X80.949 Y120.726 E5.58362
G1 X80.867 Y119.598 E5.62123
G1 X80.822 Y118.565 E5.65562
G1 X80.807 Y117.343 E5.69627
G1 X80.825 Y116.333 E5.72987
G1 X80.879 Y115.196 E5.76773
G1 X80.932 Y114.46 E5.79227
G1 X80.962 Y114.128 E5.80336
G1 X81.085 Y112.989 E5.84146
G1 X81.178 Y112.291 E5.86488
G1 X81.224 Y111.985 E5.87518
G1 X81.424 Y110.794 E5.91534
G1 X81.615 Y109.837 E5.9478
G1 X81.894 Y108.634 E5.98887
G1 X82.145 Y107.679 E6.02172
G1 X82.493 Y106.504 E6.06248
G1 X82.779 Y105.632 E6.093
G1 X83.1 Y104.733 E6.12475
G1 X83.211 Y104.437 E6.13526
G1 X83.593 Y103.475 E6.16969
G1 X84.035 Y102.449 E6.20685
G1 X84.32 Y101.831 E6.22948
G1 X84.456 Y101.55 E6.23986
G1 X85.015 Y100.438 E6.28126
G1 X85.337 Y99.837 E6.30394
G1 X85.496 Y99.551 E6.31482
G1 X86.067 Y98.57 E6.35257
G1 X86.441 Y97.961 E6.37634
G1 X86.621 Y97.679 E6.38747
G1 X87.262 Y96.715 E6.42598
G1 X87.845 Y95.891 E6.45955
G1 X88.525 Y94.988 E6.49715
G1 X88.979 Y94.414 E6.52149
G1 X89.194 Y94.152 E6.53276
G1 X89.952 Y93.262 E6.57164
G1 X90.42 Y92.74 E6.59496
G1 X90.643 Y92.499 E6.60588
G1 X91.475 Y91.636 E6.64575
G1 X92.204 Y90.921 E6.67971
G1 X93.065 Y90.128 E6.71865
G1 X93.823 Y89.47 E6.75203
G1 X94.695 Y88.757 E6.78949
G1 X95.531 Y88.113 E6.82459
G1 X96.505 Y87.409 E6.86456
G1 X97.349 Y86.838 E6.89846
G1 X98.307 Y86.229 E6.93621
G1 X98.938 Y85.85 E6.9607
G1 X99.221 Y85.686 E6.97157
G1 X100.195 Y85.147 E7.0086
G1 X100.835 Y84.812 E7.03263
G1 X101.138 Y84.66 E7.0439
G1 X102.199 Y84.154 E7.083
G1 X103.141 Y83.737 E7.11726
G1 X104.184 Y83.312 E7.15472
G1 X105.162 Y82.947 E7.18944
G1 X106.321 Y82.555 E7.23013
G1 X106.985 Y82.349 E7.25326
G1 X107.286 Y82.261 E7.26369
G1 X108.365 Y81.966 E7.30089
G1 X109.066 Y81.793 E7.32491
G1 X109.375 Y81.722 E7.33545
G1 X110.553 Y81.474 E7.37549
G1 X111.24 Y81.348 E7.39872
G1 X111.555 Y81.296 E7.40934
G1 X112.707 Y81.126 E7.44807
G1 X113.705 Y81.009 E7.48149
G1 X114.883 Y80.905 E7.52083
G1 X115.924 Y80.846 E7.5555
G1 X117.005 Y80.816 E7.59147
G1 X117.749 Y80.813 E7.61622
G1 X118.084 Y80.817 E7.62736
G1 X119.268 Y80.855 E7.66676
G0 F6000 X119.291 Y80.456
G1 F1200 X119.964 Y80.494 E7.68918
G1 X120.307 Y80.519 E7.70062
G1 X121.481 Y80.627 E7.73983
G1 X122.192 Y80.71 E7.76364
G1 X122.541 Y80.757 E7.77535
G1 X123.68 Y80.933 E7.81369
G1 X124.754 Y81.13 E7.85
G1 X125.853 Y81.367 E7.8874
G1 X126.853 Y81.613 E7.92165
G1 X127.998 Y81.931 E7.96117
G1 X128.696 Y82.144 E7.98545
G1 X129.033 Y82.253 E7.99723
G1 X130.124 Y82.629 E8.03561
G1 X130.788 Y82.875 E8.05916
G1 X131.129 Y83.008 E8.07133
G1 X132.173 Y83.441 E8.10892
G1 X133.151 Y83.879 E8.14457
G1 X134.151 Y84.363 E8.18152
G1 X134.789 Y84.691 E8.20538
G1 X135.096 Y84.855 E8.21695
G1 X135.921 Y85.314 E8.24835
G1 X136.207 Y85.479 E8.25934
G1 X137.043 Y85.984 E8.29182
G1 X138.021 Y86.611 E8.33046
G1 X138.636 Y87.028 E8.35517
G1 X138.907 Y87.218 E8.36618
G1 X139.813 Y87.879 E8.40348
G1 X140.363 Y88.3 E8.42652
G1 X140.656 Y88.533 E8.43897
G1 X141.603 Y89.318 E8.47988
G1 X142.387 Y90.008 E8.51462
G1 X143.195 Y90.761 E8.55135
G1 X143.936 Y91.494 E8.58602
G1 X144.761 Y92.361 E8.62583
G1 X145.484 Y93.167 E8.66184
G1 X146.2 Y94.018 E8.69883
G1 X146.67 Y94.604 E8.72381
G1 X146.875 Y94.868 E8.73493
G1 X147.571 Y95.801 E8.77365
G1 X147.992 Y96.396 E8.79789
G1 X148.174 Y96.663 E8.80864
G1 X148.796 Y97.608 E8.84626
G1 X149.195 Y98.249 E8.87138
G1 X149.372 Y98.545 E8.88285
G1 X149.927 Y99.512 E8.91993
G1 X150.29 Y100.181 E8.94525
G1 X150.449 Y100.485 E8.95666
G1 X150.929 Y101.451 E8.99253
G1 X151.249 Y102.133 E9.01759
G1 X151.397 Y102.463 E9.02962
G1 X151.841 Y103.509 E9.06741
G1 X152.112 Y104.191 E9.09182
G1 X152.239 Y104.527 E9.10377
G1 X152.641 Y105.66 E9.14376
G1 X152.849 Y106.294 E9.16595
G1 X152.951 Y106.624 E9.17744
G1 X153.298 Y107.827 E9.21908
G1 X153.537 Y108.761 E9.25115
G1 X153.804 Y109.94 E9.29135
G1 X153.943 Y110.634 E9.31489
G1 X154.008 Y110.992 E9.327
G1 X154.181 Y112.062 E9.36305
G1 X154.282 Y112.788 E9.38743
G1 X154.324 Y113.134 E9.39902
G1 X154.442 Y114.28 E9.43734
G1 X154.498 Y114.985 E9.46086
G1 X154.52 Y115.35 E9.47302
G1 X154.567 Y116.478 E9.51057
G1 X154.581 Y117.239 E9.53588
G1 X154.582 Y117.584 E9.54736
G1 X154.561 Y118.734 E9.58562
G1 X154.53 Y119.459 E9.60975
G1 X154.511 Y119.783 E9.62055
G1 X154.423 Y120.927 E9.65871
G1 X154.35 Y121.641 E9.68258
G1 X154.311 Y121.969 E9.69357
G1 X154.149 Y123.15 E9.73321
G1 X154.026 Y123.901 E9.75852
G1 X153.966 Y124.234 E9.76978
G1 X153.75 Y125.31 E9.80628
G1 X153.515 Y126.331 E9.84113
G1 X153.28 Y127.24 E9.87235
G1 X153.194 Y127.552 E9.88312
G1 X153.009 Y128.187 E9.90512
G1 X152.916 Y128.488 E9.91559
G1 X152.542 Y129.628 E9.9555
G1 X152.172 Y130.651 E9.99168
G1 X151.789 Y131.619 E10.02631
G1 X151.494 Y132.316 E10.05148
G1 X151.359 Y132.619 E10.06251
G1 X150.844 Y133.727 E10.10315
G1 X150.52 Y134.377 E10.12731
G1 X150.37 Y134.665 E10.13811
G1 X149.831 Y135.661 E10.17577
G1 X149.462 Y136.304 E10.20043
G1 X149.29 Y136.592 E10.21159
G1 X148.691 Y137.557 E10.24937
G1 X148.313 Y138.134 E10.27231
G1 X148.116 Y138.424 E10.28397
G1 X147.568 Y139.203 E10.31565
G1 X147.387 Y139.451 E10.32586
G1 X146.783 Y140.252 E10.35923
G1 X146.069 Y141.142 E10.39718
G1 X145.576 Y141.727 E10.42262
G1 X145.347 Y141.989 E10.43419
G1 X144.633 Y142.777 E10.46956
G1 X144.151 Y143.286 E10.49288
G1 X143.904 Y143.539 E10.50464
G1 X143.03 Y144.397 E10.54537
G1 X142.522 Y144.872 E10.5685
G1 X142.254 Y145.114 E10.58051
G1 X141.38 Y145.872 E10.61899
G1 X140.857 Y146.305 E10.64158
G1 X140.589 Y146.52 E10.653
G1 X139.634 Y147.254 E10.69307
G1 X139.099 Y147.646 E10.71512
G1 X138.809 Y147.852 E10.72696
G1 X138.047 Y148.372 E10.75764
G1 X137.789 Y148.542 E10.76792
G1 X136.937 Y149.082 E10.80147
G1 X135.909 Y149.694 E10.84126
G1 X135.311 Y150.029 E10.86406
G1 X135.018 Y150.187 E10.87513
G1 X133.978 Y150.723 E10.91404
G1 X133.328 Y151.039 E10.93808
G1 X133.009 Y151.188 E10.94979
G1 X132.034 Y151.619 E10.98525
G1 X131.36 Y151.9 E11.00953
G1 X130.997 Y152.043 E11.02251
G1 X129.811 Y152.483 E11.06458
G1 X128.889 Y152.794 E11.09695
G1 X127.784 Y153.132 E11.13538
G1 X127.096 Y153.324 E11.15914
G1 X126.766 Y153.41 E11.17048
G1 X125.668 Y153.675 E11.20805
G1 X124.947 Y153.832 E11.23259
G1 X124.573 Y153.907 E11.24528
G1 X123.468 Y154.103 E11.2826
G1 X122.737 Y154.216 E11.30721
G1 X122.394 Y154.263 E11.31872
G1 X121.323 Y154.389 E11.35459
G1 X120.588 Y154.459 E11.37915
G1 X120.225 Y154.488 E11.39126
G1 X119.319 Y154.543 E11.42145
G1 X119.005 Y154.557 E11.4319
G1 X117.978 Y154.584 E11.46607
G1 X116.831 Y154.581 E11.50422
G1 X115.733 Y154.547 E11.54076
G1 X114.681 Y154.481 E11.57582
G1 X113.942 Y154.418 E11.60048
G1 X113.586 Y154.381 E11.61239
G1 X112.351 Y154.229 E11.65377
G1 X111.353 Y154.076 E11.68736
G1 X110.252 Y153.874 E11.72459
G1 X109.532 Y153.724 E11.74905
G1 X109.183 Y153.645 E11.76095
G1 X108.065 Y153.369 E11.79925
G1 X107.367 Y153.179 E11.82331
G1 X107.03 Y153.081 E11.83498
G1 X105.875 Y152.72 E11.87523
G1 X104.927 Y152.393 E11.90859
G1 X103.791 Y151.964 E11.94897
G1 X102.819 Y151.562 E11.98396
G1 X101.844 Y151.124 E12.01951
G1 X101.162 Y150.798 E12.04465
G1 X100.859 Y150.647 E12.05591
G1 X100.017 Y150.211 E12.08745
G1 X99.731 Y150.057 E12.09825
G1 X98.889 Y149.583 E12.13039
G1 X97.865 Y148.968 E12.17012
G1 X97.291 Y148.603 E12.19274
G1 X97.012 Y148.419 E12.20386
G1 X96.038 Y147.751 E12.24314
G1 X95.47 Y147.341 E12.26644
G1 X95.194 Y147.135 E12.27789
G1 X94.279 Y146.423 E12.31645
G1 X93.739 Y145.982 E12.33964
G1 X93.473 Y145.757 E12.35123
G1 X92.537 Y144.935 E12.39266
G1 X92.044 Y144.479 E12.415
G1 X91.8 Y144.246 E12.42622
G1 X90.97 Y143.422 E12.46512
G1 X90.504 Y142.938 E12.48747
G1 X90.268 Y142.684 E12.499
G1 X89.468 Y141.791 E12.53888
G1 X89.006 Y141.249 E12.56256
G1 X88.784 Y140.98 E12.57416
G1 X88.106 Y140.124 E12.61048
G1 X87.653 Y139.524 E12.63549
G1 X87.449 Y139.244 E12.64701
G1 X86.78 Y138.288 E12.68582
G1 X86.38 Y137.686 E12.70986
G1 X86.192 Y137.393 E12.72144
G1 X85.582 Y136.397 E12.76028
G1 X85.06 Y135.485 E12.79523
G1 X84.52 Y134.476 E12.8333
G1 X84.207 Y133.855 E12.85643
G1 X84.059 Y133.549 E12.86773
G1 X83.667 Y132.705 E12.89869
G1 X83.533 Y132.403 E12.90967
G1 X83.249 Y131.738 E12.93372
G1 X83.123 Y131.429 E12.94482
G1 X82.679 Y130.282 E12.98573
G1 X82.49 Y129.758 E13.00426
G1 X82.382 Y129.443 E13.01533
G1 X82.022 Y128.327 E13.05434
G1 X81.827 Y127.67 E13.07713
G1 X81.73 Y127.32 E13.08921
G1 X81.414 Y126.086 E13.13158
G1 X81.203 Y125.146 E13.16362
G1 X80.972 Y123.956 E13.20394
G1 X80.859 Y123.283 E13.22664
G1 X80.811 Y122.965 E13.23733
G1 X80.66 Y121.827 E13.27551
G1 X80.55 Y120.756 E13.31132
G1 X80.467 Y119.617 E13.34931
G1 X80.422 Y118.571 E13.38413
G1 X80.407 Y117.648 E13.41483
G1 X80.407 Y117.338 E13.42514
G1 X80.425 Y116.315 E13.45917
G1 X80.48 Y115.168 E13.49737
G1 X80.533 Y114.432 E13.52191
G1 X80.564 Y114.086 E13.53346
G1 X80.689 Y112.936 E13.57194
G1 X80.829 Y111.92 E13.60605
G1 X81.031 Y110.717 E13.64662
G1 X81.156 Y110.075 E13.66838
G1 X81.225 Y109.748 E13.67949
G1 X81.506 Y108.534 E13.72094
G1 X81.673 Y107.887 E13.74316
G1 X81.761 Y107.567 E13.7542
G1 X82.112 Y106.381 E13.79534
G1 X82.402 Y105.498 E13.82625
G1 X82.838 Y104.291 E13.86893
G1 X83.225 Y103.318 E13.90376
G1 X83.672 Y102.282 E13.94129
G1 X83.957 Y101.664 E13.96392
G1 X84.098 Y101.371 E13.97474
G1 X84.663 Y100.249 E14.01652
G1 X84.985 Y99.648 E14.0392
